teeny/solid/double-caret-up-circle.svg

<svg width="15" height="15" viewBox="0 0 15 15" fill="none" xmlns="http://www.w3.org/2000/svg">
<path fill-rule="evenodd" clip-rule="evenodd" d="M7.5 14.9999C11.6421 14.9999 15 11.6421 15 7.49994C15 3.3578 11.6421 -6.09858e-05 7.5 -6.10352e-05C3.35786 -6.10846e-05 4.93949e-08 3.3578 0 7.49994C-4.9394e-08 11.6421 3.35786 14.9999 7.5 14.9999ZM10.207 9.49999L7.49992 6.79288L4.79282 9.49999L5.49992 10.2071L7.49992 8.20709L9.49992 10.2071L10.207 9.49999ZM10.207 6.49999L7.49992 3.79288L4.79282 6.49999L5.49992 7.20709L7.49992 5.20709L9.49992 7.20709L10.207 6.49999Z" fill="black"/>
</svg>

<svg viewBox="0 0 15 15" xmlns="http://www.w3.org/2000/svg"><path fill-rule="evenodd" d="M7.5 14.99c4.14 0 7.5-3.36 7.5-7.5 0-4.15-3.36-7.51-7.5-7.51C3.35-.03 0 3.33 0 7.48c-.01 4.14 3.35 7.49 7.5 7.49Zm2.7-5.5L7.49 6.78l-2.71 2.7 .7.7 2-2.01 2 2 .7-.71Zm0-3L7.49 3.78l-2.71 2.7 .7.7 2-2 2 2 .7-.71Z"/></svg>
